src/icons/solid/symbols/close.svg

<svg width="24" height="24" viewBox="0 0 24 24" fill="none" xmlns="http://www.w3.org/2000/svg">
<g clip-path="url(#clip0_402_337)">
<path d="M14.1283 11.9985L22.5569 3.57565C23.1477 2.98521 23.1477 2.03327 22.5569 1.44283C21.966 0.852389 21.0134 0.852389 20.4226 1.44283L11.994 9.86567L3.56536 1.45488C2.98657 0.864439 2.02192 0.864439 1.44314 1.45488C0.864346 2.04532 0.852288 2.99726 1.44314 3.57565L9.87175 11.9985L1.44314 20.4213C0.852288 21.0118 0.852288 21.9637 1.44314 22.5542C1.73253 22.8434 2.11839 23 2.50425 23C2.89011 23 3.27597 22.8554 3.56536 22.5542L11.994 14.1313L20.4226 22.5542C20.712 22.8434 21.0978 23 21.4837 23C21.8696 23 22.2554 22.8554 22.5448 22.5542C23.1357 21.9637 23.1357 21.0118 22.5448 20.4213L14.1162 11.9985H14.1283Z" fill="#212121"/>
</g>
<defs>
<clipPath id="clip0_402_337">
<rect width="24" height="24" fill="white"/>
</clipPath>
</defs>
</svg>

<svg xmlns="http://www.w3.org/2000/svg" width="24" height="24" fill="none" viewBox="0 0 24 24"><g clip-path="url(#a)"><path fill="currentColor" d="m14.128 11.999 8.429-8.423c.59-.59.59-1.543 0-2.133a1.507 1.507 0 0 0-2.134 0l-8.429 8.423-8.429-8.411a1.493 1.493 0 0 0-2.122 0c-.579.59-.59 1.542 0 2.12L9.872 12l-8.429 8.42c-.59.59-.59 1.543 0 2.133.29.29.675.446 1.061.446a1.46 1.46 0 0 0 1.061-.446l8.429-8.423 8.429 8.423c.289.29.675.446 1.06.446a1.46 1.46 0 0 0 1.062-.446c.59-.59.59-1.542 0-2.133L14.116 12z"/></g><defs><clipPath id="a"><path fill="currentColor" d="M0 0h24v24H0z"/></clipPath></defs></svg>
